!!!OTL: Schwimmersage
!!!ARE: Europa, Mitteleuropa, Deutschland
!!!SCT: A0025
!!!YEM: Copyright 1995, estate of Helmut Schaffrath.
**kern
*ICvox
*Ivox
*M3/2
*k[b-e-]
*g:
{2g
=1
1g
2b-
=2
1a
2g
=3
2.a
4b-
2cc
=4
1cc}
{2b
=5
1cc
2a
=6
2b-
1a
=7
1.g
=8
1r}
{2fn
=9
1a
2b-
=10
1cc
2b-
=11
2.g
4a
2b-
=12
1a}
{2g
=13
2fn
1d
=14
1g
2f#
=15
1g}
==
!!!AGN: Romanze, Ballade, Lied
!! Melodie und Text bei Forster II. 1540 No. 49
!!!ONB: ESAC (Essen Associative Code) Database: ALTDEU
!!!AMT: simple triple
!!!AIN: vox
!!!EED: Helmut Schaffrath
!!!EEV: 1.0
*-
